X:474
T: Es ging einmal ein verliebtes Paar (5-70), S. 114
N: P0744
O: Lothringen
S: MERKELBACH-PINCK, Angelika: Verklingende Weisen, Bd 5, Kassel 1962]
R: Liebe, Verfhrung, Tod, Jagd]
M: 3/4
L: 1/16
K: G
D4 | G3GG4A3A | B3BB4z2
G2 | A2B2c6A2 | A2c2B4z2
d2 | d6B2e6d2 | d2c2c8
A4 | F2d2d6c2 | c4B4

